X:1
T:Carmen
T:Prélude
T:De l'opéra "Carmen"
T:Georges Bizet
T:Transcr. Armando Tinajero
C:Georgez Bizet
%%score { 1 | 2 }
L:1/8
Q:1/4=116
M:2/4
K:A
V:1 treble nm="Piano" snm="Pno."
V:2 bass 
V:1
!ff! [Acea]a/a/ a/e/d/e/ | aa/a/ a/b/c'/b/ | aa/a/ b/a/g/a/ | Tb4{^ab} | %4
 [=df=a=d']d'/d'/ d'/a/=g/a/ | d'd'/d'/ d'/e'/f'/e'/ | d'd'/c'/ bb/a/ | Tg4{fg} | %8
 [Acea]a/a/ a/e/d/e/ | aa/a/ a/b/c'/b/ | aa/a/ b/a/g/a/ | Tb4{^ab} | %12
 [e=g=c'e'][c'e']/[c'e']/ [c'e']/[g=d']/[ec']/[gd']/ | %13
 [=c'e'][c'e']/[c'e']/ [c'e']/[=gd']/[ec']/[gd']/ | [ee']e/f/ ^ge/^c'/ | [degb]2 [cea] z :| %16
!p! [Ac][cf] [Ac][GB] | [FA][^EG]/[^DF]/ [EG]C | [^DF][^EG] [FA][Cc] | [B^e][A^d]/[Be]/ [Gc]C | %20
 [Ac][cf] [Ac][GB] | [FA][^EG]/[^DF]/ [EG]C | [^DF][^EG] [FA][Cc] | [G^e][F^d]/[Ge]/ [^Ec] z | %24
 [Dd]/!f![Dd]/[Dd] [Ee]/[Ee]/[Ee] | [Ff]/[Ff]/[Ff] [Dd]/[Dd]/[Dd] | %26
 z/ [cc']/ z/ [Gg]/ z/ [cc']/ z/ [dd']/ | z/ [cc']/ z/ [Gg]/ [cc'] z | %28
 [Dd]/[Dd]/[Dd] [Ede]/[Ede]/[Ede] | [Fdf]/[Fdf]/[Fdf] [Dd]/[Dd]/[Dd] |!pp!"_cresc." !///-!G2 g2 | %31
 !///-!G2 g2 | !///-!G2 g2 | !///-!G g G[=B=deg] |!ff! !>![Acea]a/a/ a/e/d/e/ | aa/a/ a/b/c'/b/ | %36
 aa/a/ b/a/g/a/ | Tb4{^ab} | [=df=a=d']d'/d'/ d'/a/=g/a/ | d'd'/d'/ d'/e'/f'/e'/ | d'd'/c'/ bb/a/ | %41
 Tg4{fg} | [Acea]a/a/ a/e/d/e/ | aa/a/ a/b/c'/b/ | aa/a/ b/a/g/a/ | Tb4{^ab} | %46
 [e=g=c'e'][c'e']/[c'e']/ [c'e']/[g=d']/[ec']/[gd']/ | %47
 [=c'e'][c'e']/[c'e']/ [c'e']/[=gd']/[ec']/[gd']/ | [ee']e/f/ ^ge/^c'/ | [degb]2 !>![cea] z | %50
!pp! [=FA] z [FA] z | [=FA] z [FA] z | [=FA] z [FA] z | [=FA] z [FA] z | [=FA=c] z [FAd]>c | %55
 [=FA] z [FA] z |{/_B} [=FA]>=G [FA]>_B | [=FA] z [FA] z | [=F_B] z [E=G]>=c | [=FA] z [FA] z | %60
 [=C=F] z [=G,=B,D]>=G | [=G,=C]3 z | =G4 | =Gd =c_B |{/_B} A=G A_B | A3 z | E2 [EA]2 | %67
 [EA]2 [E^G]>B |"_cresc." [Ee-]2 [Ee-]2 | [EAe-] z [EAe-] z | [=F=Ge](3d/e/d/ [FGc]d | %71
 [D=F=G]A [DF_B-] z | B(3A/_B/A/"_dim." =Fd | =c3 z | z (3=F/=G/F/ =C_B | A z{=GA} [=CE=G] z | %76
 [=C=F]"_cresc."C/D/ E/F/=G/A/ | _B/=c/d/e/ =f/=g/a/_b/ |!ff! [=c=fa=c'] z [dfad'] z/ [cc']/ | %79
 [A=c=fa] z [Acfa] z | [A=c=fa] z/ [=G=g]/ [Acfa] z/ [_B_b]/ | [A=c=fa] z [Acfa] z | %82
 [_Bd=f_b] z [=G=ce=g] z/ [c=c']/ | [A=c=fa] z [Acfa] z | [=FA=c=f] z [DF=Bd] z/ [=G=g]/ | %85
 [E=G=c] z [EGc] z |!p! [=G=g]4 | [=G=g][dd'] [=c=c'][_B_b] | [Aa][=G=g] [Aa][_B_b] | [Aa]3 z | %90
 [Ee]2 [Aa]2 | [Aa]2 [^G^g]>[Bb] |"_cresc." !///-!e2 e'2 | !///-!^e2 ^e'2 | %94
 [gg']/ z/ (3[ff']/g'/f'/ [^e^e'][ff'] | [Bb][cc'] [dd']2- | [dd']/ z/ (3c'/d'/c'/ =af' | %97
!ff! e'[EAc]/[EAc]/ [EA][FAdf] | [EAce](3a/b/a/ ed' | c' z [degb] z | !>![Acea]a/a/ a/e/d/e/ | %101
 aa/a/ a/b/c'/b/ | aa/a/ b/a/g/a/ | Tb4{^ab} | [=df=a=d']d'/d'/ d'/a/=g/a/ | %105
 d'd'/d'/ d'/e'/f'/e'/ | d'd'/c'/ bb/a/ | Tg4{fg} | [Acea]a/a/ a/e/d/e/ | aa/a/ a/b/c'/b/ | %110
 aa/a/ b/a/g/a/ | Tb4{^ab} | [e=g=c'e'][c'e']/[c'e']/ [c'e']/[g=d']/[ec']/[gd']/ | %113
 [=c'e'][c'e']/[c'e']/ [c'e']/[=gd']/[ec']/[gd']/ | %114
 [=c'e']/[=g=d']/[ec']/[gd']/ [c'e']/[g=d']/[ec']/[gd']/ | %115
 [=c'e']/[=g=d']/[ec']/[gd']/ [c'e']/[g=d']/[ec']/[gd']/ | !///-!e2 e'2 | !///-!e e' e[^gbd'e'] | %118
 [a^c'e'a'] z [A,A] z | !fermata!z4 |] %120
V:2
 [A,,C,E,A,][CE] E,[B,DE] | A,[CE] E,[B,DE] | A,[CE] G,[A,CE] | F,[A,B,^D] E,[G,B,E] | %4
 =D,[F,A,D] A,,[E,=G,A,D] | D,[F,A,D] A,,[E,G,A,D] | D,[F,A,D] ^G,,[F,B,D] | %7
 C,[^E,G,C] =E,[G,B,D] | [A,,C,E,A,][CE] E,[B,DE] | A,[CE] E,[B,DE] | A,[CE] G,[A,CE] | %11
 F,[A,B,^D] E,[G,B,E] | =C,=G, =G,,G, | =C,=G, =G,,G, | %14
 [E,,E,][E,G,B,D]/[E,G,B,D]/ [E,G,B,D][E,G,B,D]/[E,G,B,D]/ | %15
!ped! [E,G,B,D]E,/E,/ [A,,C,E,A,] z!ped-up! :| F,,C, F,G, | A,B,/C/ B,C, | %18
 !arpeggio![F,,A,]G, F,A, | G,F,/G,/ =E,C, | F,,C, F,G, | A,B,/C/ B,C, | !arpeggio![F,,A,]G, F,A, | %23
 [G,^B,]2 [C,C] z |!ped! [D,,D,]/[D,,D,]/[D,,D,] [E,,E,]/[E,,E,]/[E,,E,]!ped-up! | %25
 [F,,F,]/[F,,F,]/[F,,F,] [D,,D,]/[D,,D,]/[D,,D,] | [C,,C,][G,,,G,,] [C,,C,][D,,D,] | %27
 [C,,C,][G,,,G,,] [C,,C,] z | [D,,D,]/[D,,D,]/[D,,D,] [E,,D,E,]/[E,,D,E,]/[E,,D,E,] | %29
 [F,,D,F,]/[F,,D,F,]/[F,,D,F,] [D,,D,]/[D,,D,]/[D,,D,] | [G,,G,][G,,,G,,] [A,,,A,,][A,,A,] | %31
 [^A,,^A,][^A,,,A,,] [B,,,B,,][B,,B,] | [^B,,^B,][^B,,,B,,] [C,,C,][C,C] | %33
 [D,D][D,,D,] [^D,,^D,][E,,E,] | [A,,C,E,A,][CE] E,[B,DE] | A,[CE] E,[B,DE] | A,[CE] G,[A,CE] | %37
 F,[A,B,^D] E,[G,B,E] | =D,[F,A,D] A,,[E,=G,A,D] | D,[F,A,D] A,,[E,G,A,D] | D,[F,A,D] ^G,,[F,B,D] | %41
 C,[^E,G,C] =E,[G,B,D] | [A,,C,E,A,][CE] E,[B,DE] | A,[CE] E,[B,DE] | A,[CE] G,[A,CE] | %45
 F,[A,B,^D] E,[G,B,E] | =C,=G, =G,,G, | =C,=G, =G,,G, | %48
 [E,,E,][E,G,B,D]/[E,G,B,D]/ [E,G,B,D][E,G,B,D]/[E,G,B,D]/ | %49
!ped! [E,G,B,D]E,/E,/ !>![A,,C,E,A,] z!ped-up! | [=F,A,=C] z [=C,A,C] z | [=F,A,=C] z [=C,A,C] z | %52
 [=F,A,=C] z [=C,A,C] z | [=F,A,=C] z [=C,A,C] z | [=F,A,=C] z [=C,A,C] z | %55
 [=F,A,=C] z [=C,A,C] z | [=F,A,=C] z [=C,A,C] z | [=F,A,=C] z [=C,A,C] z | %58
 [=G,_B,D] z [=C,B,=C] z | [=F,A,C] z [E,A,C] z | [D,A,] z [=G,,=F,] z | [=C,E,] z [=C,,C,] z | %62
 [_B,D] z D z | [_B,D] z [=G,=B,D] z | [=F,A,D] z [A,D] z | [=F,A,D] z [D,F,A,D] z | %66
 [E,A,=C] z C z | [=B,D] z [E,B,D] z | [A,^C] z [E,A,C] z | [C,E,A,C] z [A,,C,E,A,] z | %70
 [_B,,D,=F,=G,] z [D,F,G,] z | [_B,,D,=F,=G,] z [=G,,D,F,G,] z | [=C,=C] z z2 | %73
 z (3A,/_B,/A,/ [=C,=F,][B,D] | [A,=C]3 z | z2 [=C,_B,] z | [=F,A,][K:treble]A,/_B,/ =C/D/E/=F/ | %77
 =G/A/_B/=c/ d/e/=f/=g/ |[K:bass] [=F,A,=C] z [=C,F,A,C] z | [=F,A,=C] z [=C,F,A,C] z | %80
 [=F,A,=C] z [=C,F,A,C] z | [=F,A,=C] z [=C,F,A,C] z | [=G,_B,D] z [=C,G,B,=C] z | %83
 [=F,A,C] z [E,F,A,C] z | [D,=F,A,=C] z [=G,=B,] z | [=C,E,=G,=C] z C z | [_B,D] z D z | %87
 [_B,D] z [=G,B,D] z | [=F,A,D] z [A,D] z | [=F,A,D] z [D,F,A,D] z | [E,A,=C] z [CE] z | %91
 [=B,DE] z [E,B,DE] z | [A,^CE] z [E,A,CE] z | [C,^E,A,] z [A,,C,E,A,] z | [D,F,A,] z [F,^A,] z | %95
 [D,F,B,] z [B,,D,F,B,] z | [=E,,=E,][K:treble](3c/d/c/ =Af | %97
 e[K:bass][E,A,C]/[E,A,C]/ [E,A,C][E,A,D] | [E,A,C](3A,/B,/A,/ E,D | C z [E,,G,,B,,E,] z | %100
 !>![A,,C,E,A,][CE] E,[B,DE] | A,[CE] E,[B,DE] | A,[CE] G,[A,CE] | F,[A,B,^D] E,[G,B,E] | %104
 =D,[F,A,D] A,,[E,=G,A,D] | D,[F,A,D] A,,[E,G,A,D] | D,[F,A,D] ^G,,[F,B,D] | %107
 C,[^E,G,C] =E,[G,B,D] | [A,,C,E,A,][CE] E,[B,DE] | A,[CE] E,[B,DE] | A,[CE] G,[A,CE] | %111
 F,[A,B,^D] E,[G,B,E] | =C,=G, =G,,G, | =C,=G, =G,,G, | =C,[=G,,=G,] [C,G,][G,,G,] | %115
 [=C,=G,][=G,,G,] [C,G,][G,,G,] |!ped! [E,,E,][E,E]/[E,E]/ (3[E,E][E,E][E,E] | %117
 (3[E,E][E,E][E,E] [E,E][E,^G,B,] | [A,,^C,E,A,]!ped-up! z [A,,,A,,] z | !fermata!z4 |] %120

